X:1
T: A Bright May Morning
C:
R:Reel
Q: 232
K:G
M:4/4
L:1/8
|:Gg ed B2AG|((3FED) AD BD AF|Gg ed B2 AF|DE GA BG G2|
Gg ed B2AG|((3FED) AD BD AF|Gg ed B2 AF|DE GA BG G2|
ge dB cB cd|ea a^g ae ef|ge dc Bc BA|Gg ga bg g2|
ge dB cB cd|ea a^g ae e=g|bg af gf eg|de ga bg g2:|
